X:592
T: De Baurejong (290), S. 604
N: T0480
O: Luxemburg
S: Singendes Volk, Esch-Alzette, 1937 posth.]
N: Heffingen, hhh Johann Sins
R: Brautwerbung]
M: 2/4
L: 1/16
K: G
D2 | G2D2D2D2 | E2D2D4
D2D2E2F2 | G4z2
D2 | G2D2D2D2 | E2D2D4
D2D2E2F2 | G4z2
D2 | c3cc2c2 | B3BB2z2
A3AA2A2 | G2B2d2
D2 | c3cc2c2 | B3BB2z2
A3A2GG2 | G4z2

